app/assets/images/favicon.svg

<svg height="120pt" viewBox="0 0 120 120" width="120pt" xmlns="http://www.w3.org/2000/svg" xmlns:xlink="http://www.w3.org/1999/xlink"><defs><path id="a" d="m-76.3957 114.193h7466.6657"/></defs><g fill="#085b3c"><text stroke="#085b3c" stroke-linejoin="round" stroke-width="0"><textPath method="align" startOffset="0pt" xlink:href="#a"><![CDATA[tБ]]></textPath></text><path d="m93.5606 114.193v-2.844h-5.6747v-17.3474-17.3476-17.3476c-.1891 0-.993-.0237-2.4117-.0711s-3.1211-.1896-5.1072-.4266c-1.9861-.2369-3.5467-.4976-4.6816-.782-3.2156-.948-6.384-2.1566-9.5051-3.626-3.121-1.4693-5.8874-2.8912-8.2992-4.2658-2.4117-1.3745-4.3505-2.5594-5.8165-3.5548s-2.1989-1.493-2.1989-1.493v-12.5131-12.513-12.51303h13.3354c.8512 0 1.8443.59247 2.9792 1.77742 1.135 1.18491 2.2463 2.72541 3.3339 4.62131s2.0807 3.9814 2.9792 6.2565 1.4896 4.4554 1.7733 6.5409c.1892.7584.5675 1.1375 1.135 1.1375.662 0 1.0876-.3791 1.2768-1.1375 1.1349-4.2658 2.5536-7.9154 4.256-10.9489s3.8777-5.7825 6.5258-8.24723c.6621-.66357 1.1823-1.30344 1.5606-1.91962.3783-.61617-.0946-.92425-1.4187-.92425h-14.9315-14.9314-14.9315-14.9315v2.84387h5.6747v17.30023 17.3002 17.3002 17.3002 17.3002 17.3h-5.6747v2.844h16.4211 16.4211 16.421zm-21.9893-2.844h-10.8528-10.8528v-15.6055-15.6057-15.6058-15.6057l10.8528 6.3987 10.8528 6.3987v16.5419 16.5418z"/></g></svg>

<?xml version="1.0" encoding="UTF-8"?>
<!DOCTYPE svg PUBLIC "-//W3C//DTD SVG 1.1//EN"
  "http://www.w3.org/Graphics/SVG/1.1/DTD/svg11.dtd">
<!-- Created with Inkpad (http://www.taptrix.com/) --><svg xmlns:inkpad="http://taptrix.com/inkpad/svg_extensions" height="120pt" xmlns:xlink="http://www.w3.org/1999/xlink" xmlns="http://www.w3.org/2000/svg" width="120pt" version="1.1" viewBox="0,0,120,120">
<defs>
<path id="TextPath" d="M-76.3957+114.193L7390.27+114.193" transform="matrix(1 -0 -0 1 0 0)"/>
</defs>
<g id=" Б" inkpad:layerName=" Б">
<text stroke="#085b3c" font-family="'Irmologion-ieUcs'" stroke-width="0" fill="#085b3c" font-size="38" opacity="1" transform="matrix(1 0 0 1 0 0)" stroke-linejoin="round">
<textPath xlink:href="#TextPath" method="align" startOffset="0pt">
<![CDATA[tБ]]></textPath>
</text>
<path d="M93.5606+114.193L93.5606+111.349L87.8859+111.349L87.8859+94.0016L87.8859+76.654L87.8859+59.3064C87.6968+59.3064+86.8929+59.2827+85.4742+59.2353C84.0555+59.1879+82.3531+59.0457+80.367+58.8087C78.3809+58.5718+76.8203+58.3111+75.6854+58.0267C72.4698+57.0787+69.3014+55.8701+66.1803+54.4007C63.0593+52.9314+60.2929+51.5095+57.8811+50.1349C55.4694+48.7604+53.5306+47.5755+52.0646+46.5801C50.5986+45.5847+49.8657+45.0871+49.8657+45.0871L49.8657+32.574L49.8657+20.061L49.8657+7.54797L63.2011+7.54797C64.0523+7.54797+65.0454+8.14044+66.1803+9.32539C67.3153+10.5103+68.4266+12.0508+69.5142+13.9467C70.6018+15.8426+71.5949+17.9281+72.4934+20.2032C73.3919+22.4783+73.983+24.6586+74.2667+26.7441C74.4559+27.5025+74.8342+27.8816+75.4017+27.8816C76.0637+27.8816+76.4893+27.5025+76.6785+26.7441C77.8134+22.4783+79.2321+18.8287+80.9345+15.7952C82.6369+12.7617+84.8122+10.0127+87.4603+7.54797C88.1224+6.8844+88.6426+6.24453+89.0209+5.62835C89.3992+5.01218+88.9263+4.7041+87.6022+4.7041L72.6707+4.7041L57.7393+4.7041L42.8078+4.7041L27.8763+4.7041L27.8763+7.54797L33.551+7.54797L33.551+24.8482L33.551+42.1484L33.551+59.4486L33.551+76.7488L33.551+94.049L33.551+111.349L27.8763+111.349L27.8763+114.193L44.2974+114.193L60.7185+114.193L77.1395+114.193L93.5606+114.193ZM71.5713+111.349L60.7185+111.349L49.8657+111.349L49.8657+95.7435L49.8657+80.1378L49.8657+64.532L49.8657+48.9263L60.7185+55.325L71.5713+61.7237L71.5713+78.2656L71.5713+94.8074L71.5713+111.349Z" stroke="#085b3c" stroke-width="0" fill="#085b3c" opacity="1" stroke-linejoin="round"/>
</g>
</svg>
